icons/Editor/translate.svg

<svg viewBox="0 0 24 24" xmlns="http://www.w3.org/2000/svg"><path d="M5 15V17C5 18.0544 5.81588 18.9182 6.85074 18.9945L7 19H10V21H7C4.79086 21 3 19.2091 3 17V15H5ZM18 10L22.4 21H20.245L19.044 18H14.954L13.755 21H11.601L16 10H18ZM17 12.8852L15.753 16H18.245L17 12.8852ZM8 2V4H12V11H8V14H6V11H2V4H6V2H8ZM17 3C19.2091 3 21 4.79086 21 7V9H19V7C19 5.89543 18.1046 5 17 5H14V3H17ZM6 6H4V9H6V6ZM10 6H8V9H10V6Z"/></svg>

<svg xmlns="http://www.w3.org/2000/svg" viewBox="0 0 24 24">
    <g>
        <path fill="none" d="M0 0h24v24H0z"/>
        <path d="M5 15v2a2 2 0 0 0 1.85 1.995L7 19h3v2H7a4 4 0 0 1-4-4v-2h2zm13-5l4.4 11h-2.155l-1.201-3h-4.09l-1.199 3h-2.154L16 10h2zm-1 2.885L15.753 16h2.492L17 12.885zM8 2v2h4v7H8v3H6v-3H2V4h4V2h2zm9 1a4 4 0 0 1 4 4v2h-2V7a2 2 0 0 0-2-2h-3V3h3zM6 6H4v3h2V6zm4 0H8v3h2V6z"/>
    </g>
</svg>
